X: 102
T: the Skylark Reel
R: reel
Z: 2012 John Chambers <jc@trillian.mit.edu>
B: "100 Essential Irish Session Tunes" 1995 Dave Mallinson, ed.
M: 4/4
L: 1/8
K: D
f |\
"D"agfg "G"efdB | "D"AF~F2 "D7"DFAd | "G"BG~G2 "A7"EFGE | "D"FA~A2 FAdf |
"D"agfg "G"efdB | "D"AF~F2 "D7"DFAd | "G"BG~G2 "Em"Efag | "A7"((3faf) eg "D"fd d :|
|: f |\
"D"a2fd Adfd | "Em"efed "A7"cAAf | "D"a2fa "Bm"bged | "Em"Beed "A7"efge |
"D"faaf "G"gbbg | "D"faef "G"dBAG | "D"FAdB "Em"Gfag | "A7"((3faf) eg "D"fd d :|

%%sep 2 1 500
%%sep 1 1 500

